X: 1281
T: Bill Staatz's Shottis,
B: australian traditional tunes wiki
M:4/4
L:1/8
R: Schottische
Q: 1/4=100
K:G
V:1 
|:"G"B3c"Bm"B2A2|"G"G>D "Bm"B,>D "Em"G>F E>D|"D"A2A2A>F E>D|1"G"B2 (3BBB "Bm"B2A2:|2"G"G2(3GGG G2"D7"F>E||
|:"G"D>B A>G "C"E2"D"D2|"G"D>B A>G"C"E4|"G"B4d>D E>F|1"D"[A,2F2][A,2F2][A,2F2]"D7"F>E:|2"G"G2"C"G2"G"G4||
% abcbook-tune_id 6342d53a83ecf8407c4b7d7d


% abcbook-boost 0
% abcbook-tablature 
% abcbook-transpose 
% abcbook-lastupdated 1665324357269
% abcbook-soundfonts 
% abcbook-repeats 1
% NFF Book 2007

